www/assets/icons/shuffle_on.svg

<svg xmlns="http://www.w3.org/2000/svg" width="24" height="24" viewBox="0 0 24 24" fill='currentColor'><path fill-rule="evenodd" d="M21 1H3c-1.1 0-2 .9-2 2v18c0 1.1.9 2 2 2h18c1.1 0 2-.9 2-2V3c0-1.1-.9-2-2-2M10.59 9.17 5.41 4 4 5.41l5.17 5.17zM14.5 4l2.04 2.04L4 18.59 5.41 20 17.96 7.46 20 9.5V4zm.33 9.41-1.41 1.41 3.13 3.13L14.5 20H20v-5.5l-2.04 2.04z" clip-rule="evenodd"/></svg>

<svg width="24" height="24" viewBox="0 0 24 24" xmlns="http://www.w3.org/2000/svg" fill='currentColor'><path fill-rule="evenodd" clip-rule="evenodd" d="M21 1H3C1.9 1 1 1.9 1 3V21C1 22.1 1.9 23 3 23H21C22.1 23 23 22.1 23 21V3C23 1.9 22.1 1 21 1ZM10.59 9.17L5.41 4L4 5.41L9.17 10.58L10.59 9.17ZM14.5 4L16.54 6.04L4 18.59L5.41 20L17.96 7.46L20 9.5V4H14.5ZM14.83 13.41L13.42 14.82L16.55 17.95L14.5 20H20V14.5L17.96 16.54L14.83 13.41Z"/></svg>
